X:1650
T:C..l Thornton's March
A:Wyresdale, Lancashire
B:E and J Winder, 1835-41
L:1/8
M:3/4
O:England
Z:Richard Robinson 
%%TUNEURL: http://www.leeds.ac.uk/music/Info/RRTuneBk/gettune/00001266.html
%%ID:00001266
K:G
dB G2 GG | GB Ac B2 | BB Bd ce | dg fedc | BG G2 GG | G6 :|
Bc d2 d2 | dgfe  d2 | d2 d2 Bc | dBGB dB | GB A2 AA | AcBA G2 |
GG GB Ac | B2 BB Bd | ce dg fe | dcBA G2 | GG G4 |]
